X:44
T:Lord of Carnarvans Jegg
R:Jig
M:C|
L:1/8
Z:1998 by Norman Bradley <normanb@ix.netcom.com>
K:C
B2G2 Bc d|c2A2 ABcd|B2G2d2 ef|1 g4 d4 :|2 g4d2 ef||
gfed f3B|A2A2c dc|B2G2 b2>a|g4d4||

